X: 1332
T: Beamish's Goat
R:Reel
N:Collected by Beamish
B:O'Neill's 1332
Z:Transcribed by Trish O'Neil
M:C|
L:1/8
K:Ador
(dB)|A2(AB) GFGB|A^GABe2(dB)|A2(AB) GFGB|dBGBd2(dB)|
A2(AB) GFGB|A^GAB cBcd|e^def gfge|dBGBA2||
(Bd)|e2(ef) gfgf|ed^cd efgf|e2(ef) gfge|dBGBd2(Bd)|
e2(ef) gfge|efgea2(ef)|^gaba =gfef|gedBA2|]


